src/components/00-materials/images-raw/Taxi.svg

<svg width="96" height="96" viewBox="0 0 96 96" fill="none" xmlns="http://www.w3.org/2000/svg">
<path d="M87 60.82V50.68C86.9962 49.5695 86.6058 48.495 85.896 47.641C85.1861 46.787 84.2011 46.2068 83.11 46L69.73 42.52L61.05 34.65C56 30 52.45 29 48 29H27.93C25.32 29 22.85 31.16 21.16 33.16L12.5 43.45C12.1988 43.7822 11.8396 44.0566 11.44 44.26C11.004 44.5011 10.6405 44.8545 10.3872 45.2836C10.134 45.7127 10.0003 46.2018 10 46.7V60.82M30 66H61H30ZM28.33 61H62.65H28.33Z" stroke="#00008F" stroke-width="2" stroke-linecap="round" stroke-linejoin="round"/>
<path d="M22 74C26.4183 74 30 70.4183 30 66C30 61.5817 26.4183 58 22 58C17.5817 58 14 61.5817 14 66C14 70.4183 17.5817 74 22 74Z" stroke="#00008F" stroke-width="2" stroke-linecap="round" stroke-linejoin="round"/>
<path d="M22 69C23.6569 69 25 67.6569 25 66C25 64.3431 23.6569 63 22 63C20.3431 63 19 64.3431 19 66C19 67.6569 20.3431 69 22 69Z" stroke="#00008F" stroke-width="2" stroke-linecap="round" stroke-linejoin="round"/>
<path d="M69 74C73.4183 74 77 70.4183 77 66C77 61.5817 73.4183 58 69 58C64.5817 58 61 61.5817 61 66C61 70.4183 64.5817 74 69 74Z" stroke="#00008F" stroke-width="2" stroke-linecap="round" stroke-linejoin="round"/>
<path d="M69 69C70.6569 69 72 67.6569 72 66C72 64.3431 70.6569 63 69 63C67.3431 63 66 64.3431 66 66C66 67.6569 67.3431 69 69 69Z" stroke="#00008F" stroke-width="2" stroke-linecap="round" stroke-linejoin="round"/>
<path d="M87 53C85.0968 52.9251 83.3 52.1021 82 50.71C80.6529 49.0103 79.6354 47.0737 79 45M42 44V34M35 51H32M43 51H40M51 51H48M59 51H56M39 55H36M47 55H44M55 55H52M10 51C15.6 51 17 44 11.87 44M33 29L36 23H48L51 29M77 66H86.5C87.163 66 87.7989 65.7366 88.2678 65.2678C88.7366 64.7989 89 64.163 89 63.5C89 62.837 88.7366 62.2011 88.2678 61.7322C87.7989 61.2634 87.163 61 86.5 61H75.25L77 66ZM14 66H10.5C9.83696 66 9.20107 65.7366 8.73223 65.2678C8.26339 64.7989 8 64.163 8 63.5C8 62.837 8.26339 62.2011 8.73223 61.7322C9.20107 61.2634 9.83696 61 10.5 61H15.76L14 66ZM22 44L29.51 35.66C29.9788 35.1377 30.5524 34.72 31.1933 34.434C31.8342 34.148 32.5282 34.0001 33.23 34H48C51.2357 33.9985 54.3556 35.2037 56.75 37.38L64 44H22Z" stroke="#00008F" stroke-width="2" stroke-linecap="round" stroke-linejoin="round"/>
</svg>

<svg width="96" height="96" viewBox="0 0 96 96" fill="none" xmlns="http://www.w3.org/2000/svg"><path d="M87 60.82V50.68A4.78 4.78 0 0083.11 46l-13.38-3.48-8.68-7.87C56 30 52.45 29 48 29H27.93c-2.61 0-5.08 2.16-6.77 4.16L12.5 43.45a3.69 3.69 0 01-1.06.81A2.79 2.79 0 0010 46.7v14.12M30 66h31-31zm-1.67-5h34.32-34.32z" stroke="#00008F" stroke-width="2" stroke-linecap="round" stroke-linejoin="round"/><path d="M22 74a8 8 0 100-16 8 8 0 000 16z" stroke="#00008F" stroke-width="2" stroke-linecap="round" stroke-linejoin="round"/><path d="M22 69a3 3 0 100-6 3 3 0 000 6zM69 74a8 8 0 100-16 8 8 0 000 16z" stroke="#00008F" stroke-width="2" stroke-linecap="round" stroke-linejoin="round"/><path d="M69 69a3 3 0 100-6 3 3 0 000 6zM87 53a7.23 7.23 0 01-5-2.29A17.4 17.4 0 0179 45m-37-1V34m-7 17h-3m11 0h-3m11 0h-3m11 0h-3m-17 4h-3m11 0h-3m11 0h-3m-42-4c5.6 0 7-7 1.87-7M33 29l3-6h12l3 6m26 37h9.5a2.5 2.5 0 000-5H75.25L77 66zm-63 0h-3.5a2.5 2.5 0 010-5h5.26L14 66zm8-22l7.51-8.34A5 5 0 0133.23 34H48a13 13 0 018.75 3.38L64 44H22z" stroke="#00008F" stroke-width="2" stroke-linecap="round" stroke-linejoin="round"/></svg>
